!!!OTL: Wenn alle W&auml;sserlein flie&szlig;en (3-79), S. 219
!!!id: P1052
**kern
*clefG2
*k[f#]
*G:
{4d
=1
4.g
8d
8B
8B
4d
=2
2g
4g}
=3
{4b
=4
4a
4g
4a
4cc
=5
2b}
4r
=6
{4d
=7
4g
4b
4dd
4ee
=8
4.dd
8b
4dd}
4r
=9
{4cc
4a
2f#
=10
4.cc
8dd
4b}
=11
{4g
=12
8f#
8f#
4g
2a
=13
2g}
4r
==
*-
!!!minrhy: 8
!!!meters: 4/4 ]  ZZ[5
!!!cut: Wenn alle W&auml;sserlein flie&szlig;en (3-79), S. 219
!!!reg: Lothringen
!!!trd: PINCK, Louis: Verklingende Weisen, Bd3, Metz 1933
!!!rhy1: X_  X_.XXXX_  X__X_
!!!rhy2: X_  X_X_X_X_  X__0_
!!!key: P1052  08  G 4/4 ]  ZZ[5
!!!mod: HEPTATONIK IONISCH]  AMBITUS[11
!!!kad: 13531
!!!akz: 1-311_223_1555_4-743_-721_
!!!fot: 'a__b__c__d__e__
!!!for: 'a__b__bw_c__d__
!!!fok: '~a_V__~a_Sd_-__
!! PHRAS[VORWIEGEND AUFTAKTIG]
!!!fkt: Liebe, allgemein
!! LOTH VKL
!! PR[6] 2K[10] 2G[19] 3K[0] 3G[3] 4A[13] 4Ü[0] 5A[0] 6K[0] 6G[0]
!! 7K[0] 7G[0] 8A[0] MEHR[0] SI[45] ABS[31] SR[29] SP[16]
!! ST[8] 2k[13] 2g[26] 3k[0] 3g[3] 4d[6] 4ü[0] 5d[0] 6k[0] 6g[0]
!! 7k[0] 7g[0] 8d[0] mehr[0] si[48] dm[-3] sr[39] sp[10]
!! 1F[63] 2F[31] 3F[6] 4F[0] LF[0] 2P[0] 3P[0] 4P[0] TRI[0] DF[3] AB[32]
!! TF[0] U3K[0] U3[0] U4[0] U4Ü[0] U5[13] U6K[0] U6[0] U7K[0] U7[3]
!! N1[25] N2K[0] N2[25] N3K[0] N3[22] N4[9] N4Ü[0] N5[3] N6K[0] N6[0]
!!!n7k: 0] N7[0] O1[0] O2K[0] O2[0] O3K[0] O3[0] HÖ[0
!!!RNB: symbol: &szlig; = sz ligature (UTF-8: ÃŸ)
!!!RNB: symbol: &auml;      = a umlaut  (UTF-8: Å„)
